assets/img/menu-hamburguesa.svg

<?xml version="1.0" encoding="UTF-8"?>
<!-- Generator: Adobe Illustrator 25.0.0, SVG Export Plug-In . SVG Version: 6.00 Build 0)  -->
<svg xmlns="http://www.w3.org/2000/svg" xmlns:xlink="http://www.w3.org/1999/xlink" version="1.1" id="Capa_1" x="0px" y="0px" viewBox="0 0 512 512" style="enable-background:new 0 0 512 512;" xml:space="preserve" width="512" height="512">
<g>
	<path d="M480,224H32c-17.673,0-32,14.327-32,32s14.327,32,32,32h448c17.673,0,32-14.327,32-32S497.673,224,480,224z"/>
	<path d="M32,138.667h448c17.673,0,32-14.327,32-32s-14.327-32-32-32H32c-17.673,0-32,14.327-32,32S14.327,138.667,32,138.667z"/>
	<path d="M480,373.333H32c-17.673,0-32,14.327-32,32s14.327,32,32,32h448c17.673,0,32-14.327,32-32S497.673,373.333,480,373.333z"/>
</g>















</svg>

<svg width="512" height="512" viewBox="0 0 512 512" fill="none" xmlns="http://www.w3.org/2000/svg">
<path d="M480 224H32C14.327 224 0 238.327 0 256C0 273.673 14.327 288 32 288H480C497.673 288 512 273.673 512 256C512 238.327 497.673 224 480 224Z" fill="white"/>
<path d="M32 138.667H480C497.673 138.667 512 124.34 512 106.667C512 88.994 497.673 74.667 480 74.667H32C14.327 74.667 0 88.994 0 106.667C0 124.34 14.327 138.667 32 138.667Z" fill="white"/>
<path d="M480 373.333H32C14.327 373.333 0 387.66 0 405.333C0 423.006 14.327 437.333 32 437.333H480C497.673 437.333 512 423.006 512 405.333C512 387.66 497.673 373.333 480 373.333Z" fill="white"/>
</svg>
